frontend/public/Images/Brand/p2_logo2.svg

<svg width="153" height="116" viewBox="0 0 153 116" fill="none" xmlns="http://www.w3.org/2000/svg">
<g clip-path="url(#clip0)">
<path fill-rule="evenodd" clip-rule="evenodd" d="M37.2533 96.4391C37.2533 104.859 42.1318 111.669 49.0162 114.376C54.7449 116.638 54.6046 115.045 54.6046 108.912C54.6046 107.575 54.1753 106.691 52.9454 105.99C51.7237 105.288 48.4631 104.438 48.298 98.7834C47.8027 82.109 63.7012 82.109 63.2142 98.7834C63.0491 104.438 59.7885 105.288 58.5586 105.99C57.3369 106.691 56.8994 107.575 56.8994 108.912C56.8994 114.418 56.4536 116.399 61.5385 114.764C68.9429 112.379 74.2506 105.379 74.2506 96.5382C74.2506 85.5595 65.963 77.3296 55.752 77.3296H55.6529C45.4337 77.3296 37.2533 85.4604 37.2533 96.4391Z" fill="#727171"/>
<path fill-rule="evenodd" clip-rule="evenodd" d="M77.0902 96.5711C77.0902 105.552 82.5961 112.709 90.1738 115.078C94.6561 116.481 94.4745 115.565 94.4745 110.596C94.4745 109.143 94.0122 108.194 92.6832 107.434C91.1726 106.568 89.6043 106.196 89.2493 104.19C88.9934 102.737 90.5783 88.9026 90.6278 88.2917C90.6774 87.6809 90.7847 87.1196 90.8755 87.0288C90.958 86.9462 91.1149 86.9462 91.28 86.9462H91.9568V101.194C91.9568 101.648 92.3283 102.019 92.7823 102.019C93.2363 102.019 93.616 101.648 93.616 101.194V86.9462H94.8872V101.194C94.8872 101.648 95.2587 102.019 95.7127 102.019C96.1667 102.019 96.5464 101.648 96.5464 101.194V86.9462H97.8094V101.194C97.8094 101.648 98.1891 102.019 98.6431 102.019C99.0971 102.019 99.4686 101.648 99.4686 101.194V86.9462H100.145C100.319 86.9462 100.467 86.9462 100.55 87.0288C100.632 87.1196 100.74 87.6809 100.798 88.2917C100.847 88.9026 102.432 102.737 102.176 104.19C101.821 106.196 100.253 106.568 98.7422 107.434C97.4132 108.194 96.9509 109.143 96.9509 110.596C96.9509 116.093 97.2233 116.638 102.283 114.764C109.341 112.139 114.335 105.272 114.335 96.6702C114.335 85.6172 105.99 77.3213 95.7045 77.3213H95.6054C85.3366 77.3295 77.0902 85.5182 77.0902 96.5711Z" fill="#727171"/>
<path d="M1.72522 4.20169C1.72522 2.8727 2.02239 1.9069 2.62498 1.2878C3.21931 0.668703 4.14383 0.363281 5.39854 0.363281H10.8631C12.4893 0.363281 13.9091 0.619175 15.139 1.13096C16.3607 1.64275 17.376 2.36091 18.1767 3.27717C18.9774 4.19344 19.5718 5.25829 19.9515 6.47172C20.3312 7.68516 20.5293 9.01416 20.5293 10.4505C20.5293 11.8868 20.3395 13.2158 19.9515 14.4292C19.5718 15.6426 18.9774 16.7075 18.1767 17.6238C17.376 18.54 16.3607 19.2499 15.139 19.77C13.9173 20.2818 12.4893 20.5377 10.8631 20.5377H5.39854C4.14383 20.5377 3.22757 20.224 2.62498 19.6131C2.02239 18.994 1.72522 18.0282 1.72522 16.6992V4.20169ZM9.42681 15.4941C11.2016 15.4941 12.4233 15.0813 13.0836 14.2641C13.744 13.4469 14.0824 12.1757 14.0824 10.4505C14.0824 8.7335 13.7522 7.46228 13.0836 6.63682C12.4233 5.81135 11.2016 5.40687 9.42681 5.40687H7.99876V15.4941H9.42681Z" fill="#727171"/>
<path d="M23.889 4.20169C23.889 2.8727 24.1862 1.9069 24.7887 1.2878C25.3831 0.668703 26.3076 0.363281 27.5623 0.363281H37.8063C38.7391 0.363281 39.4408 0.569648 39.9113 0.990635C40.3735 1.41162 40.6129 1.98945 40.6129 2.71586C40.6129 3.44227 40.3818 4.02009 39.9113 4.44108C39.4408 4.86207 38.7474 5.06843 37.8063 5.06843H30.3276V7.89978H36.3205C37.2533 7.89978 37.9549 8.10615 38.4172 8.52713C38.8794 8.94812 39.1188 9.52595 39.1188 10.2524C39.1188 10.9788 38.8877 11.5566 38.4172 11.9776C37.9467 12.3986 37.2533 12.6049 36.3205 12.6049H30.3276V15.8242H38.1118C39.0445 15.8242 39.7462 16.0389 40.2084 16.4516C40.6707 16.8726 40.9101 17.4504 40.9101 18.1768C40.9101 18.9032 40.679 19.4811 40.2084 19.902C39.7462 20.323 39.0445 20.5294 38.1118 20.5294H27.5541C26.2994 20.5294 25.3748 20.2157 24.7805 19.6049C24.1862 18.9858 23.8807 18.02 23.8807 16.691V4.20169H23.889Z" fill="#727171"/>
<path d="M57.3038 15.3206C58.1458 15.3206 58.8144 15.5518 59.3179 16.0058C59.8215 16.4598 60.0774 17.1036 60.0774 17.9209C60.0774 18.7463 59.8215 19.3819 59.3179 19.8442C58.8144 20.2982 58.1375 20.5293 57.3038 20.5293H47.7779C46.5232 20.5293 45.607 20.2156 45.0044 19.6048C44.4018 18.9857 44.1046 18.0199 44.1046 16.6909V3.47521C44.1046 2.39385 44.3935 1.54362 44.9714 0.924521C45.5574 0.305422 46.3416 0 47.3322 0C48.3227 0 49.1069 0.305422 49.6848 0.924521C50.2626 1.54362 50.5515 2.39385 50.5515 3.47521V15.3206H57.3038Z" fill="#727171"/>
<path d="M62.7106 3.47521C62.7106 2.39385 62.9995 1.54362 63.5773 0.924521C64.1551 0.305422 64.9393 0 65.9299 0C66.9204 0 67.7046 0.305422 68.2825 0.924521C68.8603 1.54362 69.1492 2.39385 69.1492 3.47521V17.4256C69.1492 18.5069 68.8603 19.3572 68.2825 19.9763C67.7046 20.5954 66.9204 20.9008 65.9299 20.9008C64.9393 20.9008 64.1551 20.5954 63.5773 19.9763C62.9995 19.3572 62.7106 18.5069 62.7106 17.4256V3.47521Z" fill="#727171"/>
<path d="M84.5276 2.21225C84.7175 1.44456 85.0972 0.883248 85.675 0.528298C86.2528 0.173348 86.8802 0 87.5488 0C88.3743 0 89.0842 0.255894 89.695 0.767683C90.3059 1.27947 90.603 1.93159 90.603 2.71578C90.603 3.05422 90.57 3.3679 90.504 3.66507C90.4379 3.96223 90.3306 4.34195 90.1821 4.81246L85.5017 18.2841C85.1467 19.3489 84.6762 20.0506 84.0984 20.3807C83.5205 20.7192 82.6373 20.8843 81.4651 20.8843C80.2847 20.8843 79.4097 20.7192 78.8319 20.3807C78.2541 20.0423 77.7836 19.3406 77.4286 18.2841L72.7647 4.81246C72.6162 4.34195 72.5088 3.96223 72.4428 3.66507C72.3768 3.3679 72.3438 3.04597 72.3438 2.71578C72.3438 1.93159 72.6492 1.27947 73.2518 0.767683C73.8626 0.255894 74.5725 0 75.398 0C76.0666 0 76.694 0.173348 77.2718 0.528298C77.8496 0.883248 78.2376 1.44456 78.4192 2.21225L81.4404 13.81H81.4982L84.5276 2.21225Z" fill="#727171"/>
<path d="M93.8884 4.20169C93.8884 2.8727 94.1856 1.9069 94.7882 1.2878C95.3825 0.668703 96.307 0.363281 97.5618 0.363281H107.814C108.747 0.363281 109.448 0.569648 109.911 0.990635C110.381 1.41162 110.612 1.98945 110.612 2.71586C110.612 3.44227 110.381 4.02009 109.911 4.44108C109.44 4.86207 108.747 5.06843 107.814 5.06843H100.335V7.89978H106.328C107.261 7.89978 107.963 8.10615 108.425 8.52713C108.895 8.94812 109.127 9.52595 109.127 10.2524C109.127 10.9788 108.895 11.5566 108.425 11.9776C107.954 12.3986 107.261 12.6049 106.328 12.6049H100.335V15.8242H108.119C109.052 15.8242 109.754 16.0389 110.224 16.4516C110.687 16.8726 110.926 17.4504 110.926 18.1768C110.926 18.9032 110.695 19.4811 110.224 19.902C109.754 20.323 109.06 20.5294 108.119 20.5294H97.5618C96.307 20.5294 95.3908 20.2157 94.7882 19.6049C94.1856 18.9858 93.8884 18.02 93.8884 16.691V4.20169Z" fill="#727171"/>
<path d="M113.749 4.20169C113.749 2.85619 114.063 1.88214 114.69 1.27129C115.318 0.660449 116.325 0.363281 117.703 0.363281H124.843C127.179 0.363281 128.954 0.908088 130.168 1.98945C131.381 3.07081 131.992 4.43283 131.992 6.0755C131.992 7.36323 131.629 8.42808 130.902 9.27005C130.176 10.112 129.177 10.6486 127.906 10.8962V10.954C129.004 11.0283 129.87 11.2924 130.498 11.7382C131.125 12.1839 131.505 12.9104 131.637 13.9257L131.86 15.6096C131.951 16.204 132.025 16.7323 132.066 17.178C132.116 17.6238 132.141 18.0447 132.141 18.441C132.141 19.1674 131.843 19.7617 131.257 20.224C130.671 20.678 130.003 20.9091 129.251 20.9091C128.261 20.9091 127.452 20.6862 126.816 20.2322C126.181 19.7865 125.809 19.0848 125.694 18.1355L125.388 15.4776C125.297 14.7099 125.008 14.1733 124.521 13.8514C124.034 13.5377 123.382 13.3726 122.565 13.3726H120.047V17.5495C120.047 18.6308 119.775 19.4645 119.238 20.0424C118.694 20.6202 117.918 20.9091 116.911 20.9091C115.904 20.9091 115.128 20.6202 114.583 20.0424C114.038 19.4645 113.774 18.6308 113.774 17.5495V4.20169H113.749ZM123.242 9.16274C124.175 9.16274 124.843 9.0059 125.256 8.70048C125.669 8.3868 125.875 7.89153 125.875 7.19813C125.875 6.50474 125.669 6.00946 125.256 5.70404C124.843 5.39862 124.175 5.24178 123.242 5.24178H120.023V9.16274H123.242Z" fill="#727171"/>
<path d="M145.538 1.96461C146.173 0.660372 147.172 0 148.534 0C149.393 0 150.119 0.305422 150.722 0.908012C151.316 1.51886 151.621 2.22876 151.621 3.05422C151.621 3.37615 151.555 3.69808 151.423 4.03653C151.291 4.37497 151.085 4.7877 150.804 5.26647L146.157 13.3065V17.4256C146.157 18.5069 145.868 19.3572 145.29 19.9763C144.712 20.5954 143.928 20.9008 142.938 20.9008C141.947 20.9008 141.163 20.5954 140.585 19.9763C140.007 19.3572 139.718 18.5069 139.718 17.4256V13.3065L135.071 5.26647C134.79 4.77944 134.584 4.36671 134.452 4.03653C134.32 3.69808 134.254 3.37615 134.254 3.05422C134.254 2.23701 134.551 1.51886 135.153 0.908012C135.748 0.305422 136.482 0 137.341 0C138.703 0 139.702 0.652118 140.337 1.96461L142.946 7.37141L145.538 1.96461Z" fill="#727171"/>
<path d="M1.5106 88.366C2.51767 85.9722 3.90445 83.9663 5.6792 82.3566C7.45395 80.747 9.45983 79.5501 11.6886 78.7659C13.9173 77.9817 16.2534 77.5854 18.705 77.5854C20.7852 77.5854 22.7333 77.8579 24.5658 78.4109C26.3901 78.964 27.9915 79.7234 29.3701 80.6975C30.7403 81.6715 31.8052 82.7694 32.5646 83.9911C33.3158 85.2128 33.6955 86.4757 33.6955 87.7882C33.6955 89.2328 33.1837 90.4214 32.1601 91.3542C31.1366 92.2952 29.8241 92.7575 28.2144 92.7575C27.1413 92.7575 26.3323 92.5759 25.7793 92.2044C25.2262 91.833 24.5658 91.0158 23.7899 89.7446C23.0552 88.5724 22.2545 87.7552 21.4043 87.3094C20.5458 86.8554 19.448 86.6325 18.1107 86.6325C16.2369 86.6325 14.6768 87.5158 13.4386 89.274C12.2004 91.0323 11.5813 93.4591 11.5813 96.5381C11.5813 99.5841 12.1839 102.003 13.389 103.777C14.5942 105.552 16.369 106.444 18.7216 106.444C19.7947 106.444 20.6944 106.204 21.4126 105.717C22.1307 105.23 23.0635 104.207 24.2026 102.63C25.3418 101.02 26.7451 100.22 28.429 100.22C29.9726 100.22 31.2521 100.698 32.2757 101.656C33.2993 102.614 33.8111 103.827 33.8111 105.305C33.8111 106.815 33.3488 108.202 32.4325 109.473C31.508 110.744 30.2946 111.826 28.784 112.717C27.2734 113.609 25.6307 114.294 23.8559 114.781C22.0812 115.268 20.3725 115.507 18.7298 115.507C16.2204 115.507 13.8431 115.119 11.6143 114.352C9.38554 113.584 7.39617 112.42 5.65444 110.86C3.91271 109.3 2.53418 107.319 1.53537 104.9C0.503534 102.465 0 99.6832 0 96.5381C0 93.4839 0.503534 90.7599 1.5106 88.366Z" fill="#727171"/>
<path d="M140.288 81.2011C141.493 79.8639 142.451 78.9559 143.152 78.4853C143.854 78.0148 144.663 77.7837 145.563 77.7837C147.04 77.7837 148.262 78.3037 149.236 79.3438C150.21 80.3839 150.697 81.49 150.697 82.6622C150.697 83.4299 150.54 84.115 150.218 84.7011C149.896 85.2872 149.318 85.9971 148.485 86.839L143.053 92.8237L151.853 106.551C152.62 107.789 153.008 108.928 153.008 109.969C153.008 111.446 152.414 112.701 151.225 113.741C150.037 114.781 148.666 115.301 147.131 115.301C146.124 115.301 145.232 115.119 144.44 114.748C143.656 114.377 142.954 113.708 142.351 112.734L134.46 100.517L131.191 104.083V109.061C131.191 111.009 130.671 112.528 129.631 113.634C128.591 114.74 127.188 115.293 125.405 115.293C123.63 115.293 122.218 114.74 121.178 113.634C120.138 112.528 119.618 111 119.618 109.061V84.0242C119.618 82.0844 120.138 80.5573 121.178 79.4511C122.218 78.345 123.622 77.7919 125.405 77.7919C127.179 77.7919 128.591 78.345 129.631 79.4511C130.671 80.5573 131.191 82.0844 131.191 84.0242V91.1645L140.288 81.2011Z" fill="#727171"/>
<path d="M44.7897 48.8757C47.1506 48.8757 48.6529 50.4771 48.6529 52.8875C48.6529 55.3474 47.1506 56.9488 44.7897 56.9488H5.3655C3.00467 56.9488 1.50232 55.3474 1.50232 52.8875C1.50232 50.4771 3.00467 48.8757 5.3655 48.8757H19.7121V45.5656H7.87491C5.16739 45.5656 3.76409 43.9064 3.76409 41.4052V31.3181C3.76409 28.8086 5.16739 27.1577 7.87491 27.1577H42.3298C44.5834 27.1577 45.8876 28.8169 45.8876 30.8228C45.8876 32.8287 44.5834 34.4878 42.3298 34.4878H14.0411V38.252H42.5775C44.831 38.252 46.1352 39.9029 46.1352 41.917C46.1352 43.9229 44.831 45.5821 42.5775 45.5821H30.4431V48.8922H44.7897V48.8757ZM43.0315 64.5265C45.8876 64.5265 47.1423 66.3343 47.1423 68.6869C47.1423 71.0972 45.8876 72.7977 43.0315 72.7977H7.87491C5.51408 72.7977 3.76409 71.0394 3.76409 68.6869V62.3225C3.76409 59.7636 5.41503 58.2117 9.12962 58.2117C12.6874 58.2117 14.297 59.7636 14.297 62.3225V64.5265H43.0315Z" fill="#F49E21"/>
<path d="M52.8545 66.6812C51.0468 65.2283 50.6505 62.6199 51.9548 60.6635C56.9736 53.1435 57.2708 44.8641 57.2708 38.1944H56.371C53.4654 38.1944 51.8062 35.9408 51.8062 33.126C51.8062 30.4185 53.4654 28.1649 56.371 28.1649H62.4382C65.2943 28.1649 66.549 29.5187 66.549 32.2758C66.549 48.8759 65.1952 57.8074 59.6316 66.0786C57.9724 68.134 54.9677 68.3899 52.8545 66.6812ZM68.4063 69.0915C66.5985 67.6387 66.1528 65.0302 67.5065 63.0739C73.5242 54.3487 73.5737 46.3747 73.5737 38.1944H72.2695C69.0089 38.1944 67.7047 35.9408 67.7047 33.126C67.7047 30.4185 69.0089 28.1649 72.2695 28.1649H78.8897C81.7458 28.1649 83.0005 29.5187 83.0005 32.2758C83.0005 50.8818 81.0937 60.2095 75.1751 68.4889C73.5242 70.5443 70.5112 70.792 68.4063 69.0915ZM97.3471 43.4608C98.7504 43.4608 100.806 44.0634 100.806 48.4301C100.806 52.8464 98.7504 53.4985 97.3471 53.4985H95.7952V68.6953C95.7952 71.2047 93.7894 72.8061 90.8259 72.8061C87.7139 72.8061 85.9639 71.0974 85.9639 68.6953V30.7734C85.9639 28.264 87.9698 26.6626 90.9332 26.6626C94.0453 26.6626 95.7952 28.264 95.7952 30.7734V43.4608H97.3471Z" fill="#F49E21"/>
<path d="M144.687 62.0171C147.246 62.0171 148.947 63.6763 148.947 66.8296C148.947 69.9911 147.238 71.543 144.687 71.543H106.064C103.505 71.543 101.805 69.8838 101.805 66.7305C101.805 63.569 103.513 62.0171 106.064 62.0171H144.687ZM109.828 55.2978C107.121 55.9499 105.214 54.8438 104.058 52.2849C102.853 49.5773 103.505 47.1175 106.262 46.3168C114.74 43.8569 119.651 39.8946 119.651 31.2685C119.651 28.561 121.756 27.1577 125.322 27.1577C128.938 27.1577 130.886 28.561 130.886 31.2685C130.894 46.0196 120.262 52.7884 109.828 55.2978ZM132.198 52.0868C129.639 50.4854 128.434 48.3226 129.945 44.7154C132.05 39.6965 134.609 41.9088 136.515 43.0066C138.422 44.1128 141.831 45.4665 144.44 46.1186C147.395 46.8698 147.899 49.3297 146.545 52.0868C144.993 55.2483 142.987 55.9995 140.123 55.3474C137.217 54.6952 135.005 53.845 132.198 52.0868Z" fill="#F49E21"/>
</g>
<defs>
<clipPath id="clip0">
<rect width="153" height="115.738" fill="white"/>
</clipPath>
</defs>
</svg>

<svg width="153" height="116" fill="none" xmlns="http://www.w3.org/2000/svg"><g clip-path="url(#clip0)"><path fill-rule="evenodd" clip-rule="evenodd" d="M37.253 96.44c0 8.419 4.879 15.229 11.763 17.936 5.729 2.262 5.589.669 5.589-5.464 0-1.337-.43-2.221-1.66-2.922-1.221-.702-4.482-1.552-4.647-7.207-.495-16.674 15.403-16.674 14.916 0-.165 5.655-3.425 6.505-4.655 7.207-1.222.701-1.66 1.585-1.66 2.922 0 5.506-.445 7.487 4.64 5.852 7.404-2.385 12.712-9.385 12.712-18.226 0-10.978-8.288-19.208-18.499-19.208h-.1c-10.218 0-18.399 8.13-18.399 19.11zM77.09 96.571c0 8.981 5.506 16.138 13.084 18.507 4.482 1.403 4.3.487 4.3-4.482 0-1.453-.462-2.402-1.79-3.162-1.511-.866-3.08-1.238-3.435-3.244-.256-1.453 1.33-15.287 1.379-15.898.05-.611.157-1.172.248-1.263.082-.083.239-.083.404-.083h.677v14.248c0 .454.371.825.825.825a.835.835 0 00.834-.825V86.946h1.271v14.248c0 .454.372.825.826.825a.835.835 0 00.833-.825V86.946h1.263v14.248c0 .454.38.825.834.825a.828.828 0 00.826-.825V86.946h.676c.174 0 .322 0 .405.083.082.09.19.652.248 1.263.049.61 1.634 14.445 1.378 15.898-.355 2.006-1.923 2.378-3.434 3.244-1.329.76-1.791 1.709-1.791 3.162 0 5.497.272 6.042 5.332 4.168 7.058-2.625 12.052-9.492 12.052-18.094 0-11.053-8.345-19.349-18.63-19.349h-.1c-10.268.008-18.515 8.197-18.515 19.25z" fill="#727171"/><path d="M1.725 4.202c0-1.33.297-2.295.9-2.914.594-.62 1.519-.925 2.774-.925h5.464c1.626 0 3.046.256 4.276.768 1.222.512 2.237 1.23 3.038 2.146a8.784 8.784 0 011.774 3.195c.38 1.213.578 2.542.578 3.978 0 1.437-.19 2.766-.578 3.98a8.785 8.785 0 01-1.774 3.194c-.801.916-1.816 1.626-3.038 2.146-1.222.512-2.65.768-4.276.768H5.4c-1.255 0-2.171-.314-2.774-.925-.603-.619-.9-1.585-.9-2.914V4.202zm7.702 11.292c1.775 0 2.996-.413 3.657-1.23.66-.817.998-2.088.998-3.813 0-1.718-.33-2.989-.998-3.814-.66-.826-1.882-1.23-3.657-1.23H7.999v10.087h1.428zM23.889 4.202c0-1.33.297-2.295.9-2.914.594-.62 1.519-.925 2.773-.925h10.244c.933 0 1.635.207 2.105.628.462.42.702.998.702 1.725 0 .726-.231 1.304-.702 1.725-.47.421-1.164.627-2.105.627h-7.478V7.9h5.993c.932 0 1.634.206 2.096.627.462.421.702.999.702 1.725 0 .727-.231 1.305-.702 1.726-.47.42-1.164.627-2.096.627h-5.993v3.22h7.784c.932 0 1.634.214 2.096.627.463.42.702.998.702 1.725 0 .726-.231 1.304-.702 1.725-.462.421-1.163.627-2.096.627H27.554c-1.255 0-2.18-.313-2.773-.924-.595-.62-.9-1.585-.9-2.914V4.201h.008zM57.304 15.32c.842 0 1.51.232 2.014.686.504.454.76 1.098.76 1.915 0 .825-.257 1.46-.76 1.923-.504.454-1.18.685-2.014.685h-9.526c-1.255 0-2.171-.313-2.774-.924-.602-.62-.9-1.585-.9-2.914V3.475c0-1.081.29-1.931.867-2.55.586-.62 1.37-.925 2.361-.925.99 0 1.775.305 2.353.925.578.619.866 1.469.866 2.55v11.846h6.753zM62.71 3.475c0-1.081.29-1.931.867-2.55C64.155.305 64.94 0 65.93 0c.99 0 1.775.305 2.352.925.578.619.867 1.469.867 2.55v13.95c0 1.082-.289 1.932-.867 2.551-.577.62-1.362.925-2.352.925-.99 0-1.775-.306-2.353-.925-.578-.619-.866-1.47-.866-2.55V3.476zM84.528 2.212c.19-.767.57-1.329 1.147-1.684A3.518 3.518 0 0187.549 0c.825 0 1.535.256 2.146.768.61.511.908 1.164.908 1.948 0 .338-.033.652-.099.95a14.36 14.36 0 01-.322 1.146l-4.68 13.472c-.355 1.065-.826 1.767-1.404 2.097-.578.338-1.46.503-2.633.503-1.18 0-2.055-.165-2.633-.503-.578-.339-1.048-1.04-1.403-2.097L72.765 4.812c-.149-.47-.256-.85-.322-1.147a4.407 4.407 0 01-.1-.95c0-.783.306-1.436.909-1.947.61-.512 1.32-.768 2.146-.768.669 0 1.296.173 1.874.528.578.355.966.917 1.147 1.684L81.44 13.81h.058l3.03-11.598zM93.888 4.202c0-1.33.298-2.295.9-2.914.594-.62 1.519-.925 2.774-.925h10.252c.933 0 1.634.207 2.097.628.47.42.701.998.701 1.725 0 .726-.231 1.304-.701 1.725-.471.421-1.164.627-2.097.627h-7.479V7.9h5.993c.933 0 1.635.206 2.097.627.47.421.702.999.702 1.725 0 .727-.232 1.305-.702 1.726-.471.42-1.164.627-2.097.627h-5.993v3.22h7.784c.933 0 1.635.214 2.105.627.463.42.702.998.702 1.725 0 .726-.231 1.304-.702 1.725-.47.421-1.164.627-2.105.627H97.562c-1.255 0-2.171-.313-2.774-.924-.602-.62-.9-1.585-.9-2.914V4.201zM113.749 4.202c0-1.346.314-2.32.941-2.93.628-.612 1.635-.909 3.013-.909h7.14c2.336 0 4.111.545 5.325 1.626 1.213 1.082 1.824 2.444 1.824 4.087 0 1.287-.363 2.352-1.09 3.194-.726.842-1.725 1.379-2.996 1.626v.058c1.098.074 1.964.338 2.592.784.627.446 1.007 1.172 1.139 2.188l.223 1.684c.091.594.165 1.122.206 1.568.05.446.075.867.075 1.263 0 .726-.298 1.32-.884 1.783a3.19 3.19 0 01-2.006.685c-.99 0-1.799-.223-2.435-.677-.635-.445-1.007-1.147-1.122-2.096l-.306-2.658c-.091-.768-.38-1.305-.867-1.627-.487-.313-1.139-.478-1.956-.478h-2.518v4.176c0 1.082-.272 1.916-.809 2.493-.544.578-1.32.867-2.327.867s-1.783-.289-2.328-.867c-.545-.578-.809-1.411-.809-2.493V4.202h-.025zm9.493 4.96c.933 0 1.601-.156 2.014-.462.413-.313.619-.808.619-1.502 0-.693-.206-1.189-.619-1.494-.413-.305-1.081-.462-2.014-.462h-3.219v3.92h3.219zM145.538 1.965C146.173.66 147.172 0 148.534 0a2.98 2.98 0 012.188.908c.594.61.899 1.32.899 2.146 0 .322-.066.644-.198.983a8.941 8.941 0 01-.619 1.23l-4.647 8.04v4.119c0 1.08-.289 1.931-.867 2.55-.578.62-1.362.925-2.352.925-.991 0-1.775-.306-2.353-.925-.578-.619-.867-1.47-.867-2.55v-4.12l-4.647-8.04a9.982 9.982 0 01-.619-1.23 2.675 2.675 0 01-.198-.982c0-.817.297-1.535.899-2.146A2.967 2.967 0 01137.341 0c1.362 0 2.361.652 2.996 1.965l2.609 5.406 2.592-5.406zM1.51 88.366c1.008-2.394 2.394-4.4 4.17-6.01a17.528 17.528 0 016.009-3.59 20.975 20.975 0 017.016-1.18c2.08 0 4.028.272 5.86.825 1.825.553 3.426 1.312 4.805 2.287 1.37.974 2.435 2.071 3.195 3.293.75 1.222 1.13 2.485 1.13 3.797 0 1.445-.511 2.633-1.535 3.566-1.023.941-2.336 1.403-3.946 1.403-1.073 0-1.882-.181-2.435-.553-.553-.371-1.213-1.188-1.99-2.46-.734-1.172-1.535-1.989-2.385-2.435-.858-.454-1.956-.677-3.293-.677-1.874 0-3.434.884-4.672 2.642-1.239 1.758-1.858 4.185-1.858 7.264 0 3.046.603 5.465 1.808 7.239 1.205 1.775 2.98 2.667 5.333 2.667 1.073 0 1.972-.24 2.69-.727.719-.487 1.652-1.51 2.79-3.087 1.14-1.61 2.543-2.41 4.227-2.41 1.544 0 2.823.478 3.847 1.436 1.023.958 1.535 2.171 1.535 3.649 0 1.51-.462 2.897-1.379 4.168-.924 1.271-2.137 2.353-3.648 3.244a20.092 20.092 0 01-4.928 2.064c-1.775.487-3.484.726-5.126.726-2.51 0-4.887-.388-7.116-1.155a17.284 17.284 0 01-5.96-3.492c-1.741-1.56-3.12-3.541-4.119-5.96C.504 102.465 0 99.683 0 96.538c0-3.054.504-5.778 1.51-8.172zM140.288 81.201c1.205-1.337 2.163-2.245 2.864-2.716.702-.47 1.511-.701 2.411-.701 1.477 0 2.699.52 3.673 1.56.974 1.04 1.461 2.146 1.461 3.318 0 .768-.157 1.453-.479 2.04-.322.585-.9 1.295-1.733 2.137l-5.432 5.985 8.8 13.727c.767 1.238 1.155 2.377 1.155 3.418 0 1.477-.594 2.732-1.783 3.772-1.188 1.04-2.559 1.56-4.094 1.56-1.007 0-1.899-.182-2.691-.553-.784-.371-1.486-1.04-2.089-2.014l-7.891-12.217-3.269 3.566v4.978c0 1.948-.52 3.467-1.56 4.573-1.04 1.106-2.443 1.659-4.226 1.659-1.775 0-3.187-.553-4.227-1.659-1.04-1.106-1.56-2.634-1.56-4.573V84.024c0-1.94.52-3.467 1.56-4.573 1.04-1.106 2.444-1.66 4.227-1.66 1.774 0 3.186.554 4.226 1.66 1.04 1.106 1.56 2.633 1.56 4.573v7.14l9.097-9.963z" fill="#727171"/><path d="M44.79 48.876c2.36 0 3.863 1.601 3.863 4.012 0 2.46-1.502 4.06-3.863 4.06H5.365c-2.36 0-3.863-1.6-3.863-4.06 0-2.41 1.503-4.012 3.864-4.012h14.346v-3.31H7.875c-2.708 0-4.11-1.66-4.11-4.16V31.317c0-2.51 1.402-4.16 4.11-4.16H42.33c2.253 0 3.558 1.659 3.558 3.665 0 2.006-1.305 3.665-3.558 3.665H14.04v3.764h28.537c2.253 0 3.557 1.65 3.557 3.665 0 2.006-1.304 3.665-3.557 3.665H30.443v3.31H44.79v-.016zm-1.758 15.65c2.856 0 4.11 1.808 4.11 4.16 0 2.411-1.254 4.112-4.11 4.112H7.875c-2.36 0-4.11-1.759-4.11-4.111v-6.364c0-2.56 1.65-4.111 5.365-4.111 3.557 0 5.167 1.552 5.167 4.11v2.204h28.735zM52.855 66.681c-1.808-1.453-2.204-4.061-.9-6.017 5.019-7.52 5.316-15.8 5.316-22.47h-.9c-2.906 0-4.565-2.253-4.565-5.068 0-2.707 1.66-4.961 4.565-4.961h6.067c2.856 0 4.111 1.354 4.111 4.11 0 16.6-1.354 25.532-6.917 33.804-1.66 2.055-4.664 2.31-6.777.602zm15.551 2.41c-1.808-1.452-2.253-4.06-.9-6.017 6.018-8.725 6.068-16.7 6.068-24.88h-1.305c-3.26 0-4.564-2.253-4.564-5.068 0-2.707 1.304-4.961 4.564-4.961h6.62c2.857 0 4.112 1.354 4.112 4.11 0 18.607-1.907 27.934-7.826 36.214-1.65 2.055-4.664 2.303-6.769.602zm28.941-25.63c1.403 0 3.459.602 3.459 4.97 0 4.415-2.056 5.068-3.459 5.068h-1.552v15.196c0 2.51-2.006 4.111-4.97 4.111-3.111 0-4.861-1.709-4.861-4.11V30.772c0-2.509 2.006-4.11 4.97-4.11 3.111 0 4.861 1.601 4.861 4.11v12.688h1.552zM144.687 62.017c2.559 0 4.26 1.66 4.26 4.813 0 3.161-1.709 4.713-4.26 4.713h-38.623c-2.559 0-4.259-1.66-4.259-4.813 0-3.161 1.708-4.713 4.259-4.713h38.623zm-34.859-6.72c-2.707.653-4.614-.453-5.77-3.012-1.205-2.708-.553-5.167 2.204-5.968 8.478-2.46 13.389-6.422 13.389-15.049 0-2.707 2.105-4.11 5.671-4.11 3.616 0 5.564 1.403 5.564 4.11.008 14.752-10.624 21.52-21.058 24.03zm22.37-3.21c-2.559-1.602-3.764-3.764-2.253-7.372 2.105-5.019 4.664-2.806 6.57-1.708 1.907 1.106 5.316 2.46 7.925 3.112 2.955.75 3.459 3.21 2.105 5.968-1.552 3.161-3.558 3.912-6.422 3.26-2.906-.652-5.118-1.502-7.925-3.26z" fill="#F49E21"/></g><defs><clipPath id="clip0"><path fill="#fff" d="M0 0h153v115.738H0z"/></clipPath></defs></svg>
